Apricity Icons/16/panel/firewall-applet-error.svg

<svg xmlns="http://www.w3.org/2000/svg" width="16" height="16" version="1">
 <defs>
  <style id="current-color-scheme" type="text/css">
   .ColorScheme-Text { color:#dfdfdf; } .ColorScheme-Highlight { color:#4285f4; }
  </style>
 </defs>
 <path style="fill:currentColor" class="ColorScheme-Text" d="M 7.9355469 1.0117188 L 2.1328125 3.0488281 C 2.0536125 3.0768274 2 3.4645676 2 3.5488281 C 2 12.000284 7.9692063 14.996635 8 15 C 8 15 14 12.000284 14 3.5488281 C 14 3.4645676 13.946045 3.0768274 13.867188 3.0488281 L 8.0644531 1.0117188 C 8.0215961 0.99658165 7.9784036 0.99658165 7.9355469 1.0117188 z M 8 3.109375 L 11.851562 4.4609375 C 11.544524 9.1886427 9.3588323 11.634014 8.0390625 12.599609 C 7.6051694 12.264987 7.083349 11.834815 6.5292969 11.166016 C 5.4009719 9.8040079 4.3706233 7.6036785 4.15625 4.4589844 L 8 3.109375 z"/>
 <path style="fill:none" class="ColorScheme-Text" d="m 7.9348571,1.0113528 -5.8026,1.7381468 C 2.0530571,2.7774989 2,3.1643274 2,3.2485879 2,5.3242142 2.5479714,7.7245455 3.5033428,9.8323711 4.2782857,11.542081 5.6718285,13.822278 7.9091428,14.978125 7.9382857,14.992125 7.9691428,15 8,15 c 0.030857,0 0.061714,-0.0079 0.09,-0.02187 2.238,-1.155847 3.631714,-3.436044 4.406571,-5.1457539 C 13.452286,7.7236705 14,5.3239518 14,3.2485879 14,3.1643274 13.946857,2.7774989 13.868,2.7494996 L 8.0651428,1.0113528 c -0.042857,-0.0151371 -0.087429,-0.0151371 -0.1302857,0 z"/>
 <path style="fill:currentColor" class="ColorScheme-Highlight" d="m 7,4.0117188 0,4.0001406 2,0 0,-4.0001406 z m 1,4.9884218 c -0.5522847,0 -1,0.4477153 -1,1.0000004 0,0.552284 0.4477153,1 1,1 0.5522847,0 1,-0.447716 1,-1 C 9,9.4478559 8.5522847,9.0001406 8,9.0001406 Z"/>
</svg>

<svg xmlns="http://www.w3.org/2000/svg" width="16" height="16" version="1"><defs><style id="current-color-scheme" type="text/css">.ColorScheme-Text{color:#dfdfdf}</style></defs><path class="ColorScheme-Text" d="M7.936 1.012L2.133 3.049c-.08.028-.133.416-.133.5C2 12 7.97 14.997 8 15c0 0 6-3 6-11.451 0-.084-.054-.472-.133-.5L8.064 1.012a.189.189 0 0 0-.128 0zM8 3.109l3.852 1.352c-.307 4.728-2.493 7.173-3.813 8.139a8.966 8.966 0 0 1-1.51-1.434C5.401 9.804 4.371 7.604 4.156 4.459L8 3.109z" fill="currentColor"/><path class="ColorScheme-Text" d="M7.935 1.011L2.132 2.75c-.079.028-.132.415-.132.5 0 2.075.548 4.476 1.503 6.583.775 1.71 2.169 3.99 4.406 5.146A.21.21 0 0 0 8 15c.03 0 .062-.008.09-.022 2.238-1.156 3.632-3.436 4.407-5.146C13.452 7.724 14 5.324 14 3.25c0-.085-.053-.472-.132-.5L8.065 1.011a.193.193 0 0 0-.13 0z" fill="none"/><path d="M7 4.012v4h2v-4zM8 9a1 1 0 1 0 0 2 1 1 0 0 0 0-2z" fill="currentColor" color="#5294e2"/></svg>
